build/img/svg/vk.svg

<svg width="20" height="20" viewBox="0 0 20 20" xmlns="http://www.w3.org/2000/svg">
<g clip-path="url(#clip0)">
<path fill-rule="evenodd" clip-rule="evenodd" d="M9.78528 15.7872H10.9803C10.9803 15.7872 11.3415 15.7472 11.5265 15.5522C11.6965 15.3709 11.6915 15.0347 11.6915 15.0347C11.6915 15.0347 11.6678 13.4534 12.4128 13.2184C13.1453 12.9897 14.0878 14.7484 15.0865 15.4247C15.8428 15.9347 16.4165 15.8234 16.4165 15.8234L19.0878 15.7872C19.0878 15.7872 20.484 15.7022 19.8228 14.6172C19.769 14.5322 19.4365 13.8184 17.8353 12.3509C16.1603 10.8197 16.3853 11.0672 18.404 8.41716C19.6315 6.80216 20.1228 5.81591 19.969 5.39466C19.8228 4.99216 18.919 5.09841 18.919 5.09841L15.9115 5.11716C15.9115 5.11716 15.689 5.08841 15.5228 5.18466C15.3615 5.27966 15.259 5.50216 15.259 5.50216C15.259 5.50216 14.7828 6.75216 14.1478 7.81591C12.8078 10.0572 12.2728 10.1759 12.0528 10.0359C11.544 9.71091 11.6715 8.73216 11.6715 8.03591C11.6715 5.86341 12.0053 4.95716 11.0203 4.72216C10.694 4.64591 10.4528 4.59466 9.61778 4.58591C8.54403 4.57591 7.63653 4.58841 7.12153 4.83841C6.78028 5.00341 6.51528 5.37091 6.67653 5.39216C6.87528 5.41841 7.32528 5.51216 7.56403 5.83216C7.87278 6.24591 7.86153 7.17341 7.86153 7.17341C7.86153 7.17341 8.03903 9.73216 7.44778 10.0497C7.04153 10.2672 6.48528 9.82216 5.29153 7.78841C4.68153 6.74591 4.21903 5.59466 4.21903 5.59466C4.21903 5.59466 4.13028 5.37966 3.97153 5.26466C3.77903 5.12466 3.51028 5.07966 3.51028 5.07966L0.651529 5.09841C0.651529 5.09841 0.222779 5.10966 0.0652791 5.29466C-0.0747209 5.45841 0.0540291 5.79591 0.0540291 5.79591C0.0540291 5.79591 2.29153 10.9584 4.82403 13.5584C7.14778 15.9447 9.78528 15.7872 9.78528 15.7872Z"/>
</g>
<defs>
<clipPath id="clip0">
<rect width="20" height="20" fill="white"/>
</clipPath>
</defs>
</svg>

<svg width="20" height="20" xmlns="http://www.w3.org/2000/svg"><g clip-path="url(#clip0)"><path fill-rule="evenodd" clip-rule="evenodd" d="M9.785 15.787h1.195s.361-.04.546-.235c.17-.181.165-.517.165-.517s-.023-1.582.722-1.817c.732-.228 1.675 1.53 2.673 2.207.757.51 1.33.398 1.33.398l2.672-.036s1.396-.085.735-1.17c-.054-.085-.387-.799-1.988-2.266-1.675-1.531-1.45-1.284.569-3.934 1.227-1.615 1.719-2.601 1.565-3.022-.146-.403-1.05-.297-1.05-.297l-3.008.02s-.222-.03-.388.067c-.162.095-.264.317-.264.317s-.476 1.25-1.111 2.314c-1.34 2.241-1.875 2.36-2.095 2.22-.509-.325-.382-1.304-.382-2 0-2.173.334-3.079-.65-3.314-.327-.076-.568-.127-1.403-.136-1.074-.01-1.981.002-2.496.252-.342.165-.607.533-.445.554.198.026.648.12.887.44.309.414.298 1.341.298 1.341s.177 2.56-.414 2.877c-.406.217-.963-.228-2.156-2.262-.61-1.042-1.073-2.193-1.073-2.193s-.089-.215-.247-.33a1.255 1.255 0 00-.462-.185l-2.858.018s-.43.012-.587.197c-.14.163-.011.5-.011.5s2.238 5.163 4.77 7.763c2.324 2.387 4.961 2.23 4.961 2.23z"/></g><defs><clipPath id="clip0"><path fill="#fff" d="M0 0h20v20H0z"/></clipPath></defs></svg>
